X:149
T: Koenig von Mailand
N: Q1067A
O: Mitteleuropa, Deutschland
N: Melodievergleich zu Q0067, anderes Lied. Pause am Ende der 2. Zeile
N: eingefuegt.
R: ???
M: 6/4
L: 1/8
K: F
C2 | F2F2G2F4-FA | A2AG3F6 |
D2D2_E2D4F2- | F2G4G2FED2 | C6z4-z
C | F2F2A2c6 | c2BAG2F2cAG2 | F6z4

